src/img/light-gray.svg

<svg width="27" height="35" viewBox="0 0 27 35" fill="none" xmlns="http://www.w3.org/2000/svg">
<path opacity="0.2" d="M1.88493 21.4325H14.6386L12.4085 32.7078C12.3057 33.224 12.5935 33.7403 13.0765 33.9365C13.2101 33.9985 13.354 34.0191 13.4876 34.0191C13.8473 34.0191 14.207 33.8333 14.4125 33.5132L26.0152 15.2579C26.231 14.9172 26.2413 14.4938 26.046 14.1428C25.861 13.7813 25.4911 13.5646 25.0902 13.5646H12.3366L14.5667 2.28919C14.6695 1.77293 14.3817 1.25665 13.8987 1.06047C13.4054 0.864344 12.8504 1.03986 12.5626 1.48384L0.959985 19.7391C0.744147 20.0799 0.733923 20.5032 0.929188 20.8543C1.11417 21.2156 1.48412 21.4325 1.88493 21.4325Z" fill="#2D404E"/>
</svg>

<svg width="27" height="35" fill="none" xmlns="http://www.w3.org/2000/svg"><path opacity=".2" d="M1.885 21.433h12.754l-2.23 11.275a1.102 1.102 0 0 0 .667 1.229.975.975 0 0 0 .412.082c.36 0 .719-.186.925-.506l11.602-18.255c.216-.34.226-.764.031-1.115a1.067 1.067 0 0 0-.956-.578H12.337l2.23-11.276a1.1 1.1 0 0 0-2.004-.805L.96 19.739c-.216.34-.226.764-.03 1.115.184.362.554.579.955.579Z" fill="#2D404E"/></svg>
